X:1
T:564 - Mais Um Templo
T:Letra: Manuel Avelino de Souza (1886-1962)
T:MÃºsica: William James Kirkpatrick (1838-1921)
M:6/8
L:1/8
Q:1/4=115
K:G
V:1
"G"DB,D GDG | BGB d3 | BdB G3 | GBG D3 | DB,D GDG | BGB d3 | BdB "D7"A2 D | "G"G3- G2 z || "D7"(AD)B "G"G3 | "D7"(AD)B "G"G3 | "D"DGB "(D7)"d2 "(G)"d | "(D)"d3- d2 z | "G"(Bd)B G3 | (GB)G D3 | "C"EGc "G/D"B2 "D7"A | "G"G3- G2 z |]
w: 1.~Ho-je,i-nau-gu-ra-sea-qui, san-to Deus, Mais um pa-drÃ£o de teu a-mor; Um no-vo tem-plo, fa-nal pa-raos cÃ©us, Cau-sa de mais lou-vor!_ GlÃ³_riaa Deus, glÃ³_riaa Deus!    Can-tem os fi-lhos teus!_    GlÃ³_riaa Deus, glÃ³_riaa Deus!    GlÃ³-ria nos al-tos cÃ©us!_
w: 2.~Ca-sa de cul-tos e fon-te de luz, On-deo Se-nhor dÃ¡ sal-va-Ã§Ã£o Pe-loe-van-ge-lho que trou-xe Je-sus Com tan-ta com-pai-xÃ£o!_
w: 3.~Mar-co su-bli-me da pro-cla-ma-Ã§Ã£o Do teu a-mor, do teu que-rer; Os pe-ca-do-res a-qui ou-vi-rÃ£o Qual Ã© o seu de-ver._
w: 4.~Se-jaes-ta ca-sa lu-gar deo-ra-Ã§Ã£o, Ha-bi-ta-Ã§Ã£o cer-ta de Deus, Por-ta do cÃ©u e lu-gar de per-dÃ£o, Vi-da de paz dos cÃ©us!_
W: 
W: 
W: 1. Hoje, inaugura-se aqui, santo Deus,
W: Mais um padrÃ£o de teu amor;
W: Um novo templo, fanal para os cÃ©us,
W: Causa de mais louvor!
W: 
W:    (Estribilho)
W:    GlÃ³ria a Deus, glÃ³ria a Deus!
W:    Cantem os filhos teus!
W:    GlÃ³ria a Deus, glÃ³ria a Deus!
W:    GlÃ³ria nos altos cÃ©us!
W:         
W: 2. Casa de cultos e fonte de luz,
W: Onde o Senhor dÃ¡ salvaÃ§Ã£o
W: Pelo evangelho que trouxe Jesus
W: Com tanta compaixÃ£o!
W: 
W:
W:
W: 3. Marco sublime da proclamaÃ§Ã£o
W: Do teu amor, do teu querer;
W: Os pecadores aqui ouvirÃ£o
W: Qual Ã© o seu dever.
W: 
W: 4. Seja esta casa lugar de oraÃ§Ã£o,
W: HabitaÃ§Ã£o certa de Deus,
W: Porta do cÃ©u e lugar de perdÃ£o,
W: Vida de paz dos cÃ©us!
W: 
W: 

